X: 25279
T: Man Of Aran, The
R: reel
M: 4/4
K: Bminor
|:FBfe dB~B2|Aced cA ~A2|FBfe dB~B2|cedc dBBA|
FBfe dB~B2|Aced cA ~A2|d2 (3efg fB~B2|1 cedc dBBA:|2 cedc dBBc||
|:df~f2 df~f2|ceef gfef|df~f2 df~f2|cedc dBBc|
df~f2 df~f2|ceef gfef|d2 (3efg fB~B2|1 cedc dBBc:|2 cedc dBBA||

